X: 030918
T: Circus [The]
S: "First Collection of Traditional Irish Music" (M.Mulvihill)
Z: B.Black
L: 1/8
M: C|
R: hornpipe
K: G
D2 GF GABc|d2 fd gdBG|E2 cB AGFA|GFGE (3DCB, A,2|
G,2 GF GABc|d2 fd gdBG|EG (3GFG AGFE|DGGF G4 |
D2 GF GABc|d2 fd gdBG|E2 cB AGFA|GFGE (3DED (3CB,A,
G,2 GF GABc|d2 fd gdBG|EG (3GFG AGFE|DGGF G3 ||
A|Bdgd cBcd|ec (3cBc A^GAB|ce (3agf gdBd|cAFA DAFA|
Bdgd cBcd|eg (3fga gecG|EG (3GFG AGFE|DGGF G4 :|
